X: 35
T:Minuet. TBe.035
M:3/4
L:1/4
Q:70
S:Thomas Bennet MS,1718, VWMLt
R:minuet
O:England
Z:vmp.C. Graebe..
K:C major
c (e/d/)c/B/ | c2 G | e (g/f/)e/d/ | e2c |\
e/f/g/a/ g | a2 g | f e2 | d3 ||!
Gdg | Gdf | Gce | d3 | gc'2 | a2g | fe2 | a2d | ed2 | c3 ||
